!!!COM: des Prez, Josquin
!!!CDT: ~1450-1521/08/27
!!!OTL@@LAT: Ave verum corpus
!!!AGN: Motet
!!!SCT: NJE 21.2
!!!SCA: New Josquin Edition 21.2
!!!voices: 2-3
**kern	**text	**kern	**text	**kern	**text
*staff3	*	*staff2	*	*staff1	*
*Ivox	*	*Ivox	*	*Ivox	*
*I"Altus	*	*I"Superius 2	*	*I"Superius 1	*
*I'A	*	*I'S2	*	*I'S1	*
*>[A,B,C,D,E,F]	*	*>[A,B,C,D,E,F]	*	*>[A,B,C,D,E,F]	*
*>A	*	*>A	*	*>A	*
*clefGv2	*	*clefG2	*	*clefG2	*
*k[]	*	*k[]	*	*k[]	*
*M2/1	*	*M2/1	*	*M2/1	*
*met(C|)	*	*met(C|)	*	*met(C|)	*
!	!	!	!	!LO:TX:Z=6:t=Exceptional ranges (effectively SST)	!
=1-	=1-	=1-	=1-	=1-	=1-
0r	.	0f	A-	0r	.
=2	=2	=2	=2	=2	=2
0r	.	1g	-ve	0r	.
.	.	[1a	ve-	.	.
=3	=3	=3	=3	=3	=3
0r	.	2a/]	.	0cc	A-
.	.	2f/	.	.	.
.	.	[1f	-rum,	.	.
=4	=4	=4	=4	=4	=4
0r	.	1f]	.	1dd	-ve
.	.	[1cc	ve-	[1ee	ve-
=5	=5	=5	=5	=5	=5
0r	.	2cc\]	.	2ee\]	.
.	.	4b-i\	.	2cc\	.
.	.	4a/	.	.	.
.	.	2.a/	.	[1cc	-rum
.	.	4f/	.	.	.
=6	=6	=6	=6	=6	=6
0r	.	0f	-rum	1cc]	.
.	.	.	.	1ff	cor-
=7	=7	=7	=7	=7	=7
0r	.	1r	.	1ee	-pus
.	.	[1b-	cor-	[1dd	na-
=8	=8	=8	=8	=8	=8
0r	.	1b-]	.	1dd]	.
.	.	1a	-pus	1cc	-tum,
=9	=9	=9	=9	=9	=9
0r	.	1g	na-	1r	.
.	.	1f	.	1ff	na-
=10	=10	=10	=10	=10	=10
0r	.	0g	.	2ee\	.
.	.	.	.	1dd	.
.	.	.	.	4cc\	.
.	.	.	.	4b-i\	.
=11	=11	=11	=11	=11	=11
0r	.	[0a	-tum	1cc	-tum
.	.	.	.	1f	.
=12	=12	=12	=12	=12	=12
0r	.	0a]	.	1r	.
.	.	.	.	1cc	ex
=13	=13	=13	=13	=13	=13
0r	.	0r	.	1dd	Ma-
.	.	.	.	1ff	-ri-
=14	=14	=14	=14	=14	=14
0r	.	0g	ex	2.ee\	-a
.	.	.	.	4dd\	.
.	.	.	.	2ee\	.
.	.	.	.	[2dd\	vir-
=15	=15	=15	=15	=15	=15
0r	.	0f	Ma-	4dd\]	.
.	.	.	.	4cc\	.
.	.	.	.	4dd\	.
.	.	.	.	4cc\	.
.	.	.	.	2dd\	.
.	.	.	.	[2cc\	.
=16	=16	=16	=16	=16	=16
0r	.	0e	-ri-	2cc\]	.
.	.	.	.	4b-i\	.
.	.	.	.	4a/	.
.	.	.	.	1g	-gi-
=17	=17	=17	=17	=17	=17
0r	.	0f	-a	1f	-ne,
.	.	.	.	1ff	ex
=18	=18	=18	=18	=18	=18
0r	.	0g	vir-	1ee	Ma-
.	.	.	.	1dd	-ri-
=19	=19	=19	=19	=19	=19
0r	.	1.a	.	1cc	-a
.	.	.	.	[1ff	vir-
.	.	2f/	-gi-	.	.
=20	=20	=20	=20	=20	=20
0r	.	1f	-ne,	1ff]	.
.	.	1g	vir-	1ee	.
=21	=21	=21	=21	=21	=21
0r	.	1b-i	.	1dd	.
.	.	[1a	.	[1cc	.
=22	=22	=22	=22	=22	=22
0r	.	2a/]	.	2cc\]	.
.	.	2g/	.	2b-i\	.
.	.	[1f	.	1a	.
=23	=23	=23	=23	=23	=23
0r	.	2f/]	.	2.g/	.
.	.	4e/	.	.	.
.	.	4d/	.	4f/	.
.	.	1e	-gi-	1g	-gi-
=24	=24	=24	=24	=24	=24
0r	.	0f/l	-ne.	0f/l	-ne.
!!LO:LB:i:g=z
=25||	=25||	=25||	=25||	=25||	=25||
*>B	*	*>B	*	*>B	*
*clefGv2	*	*clefG2	*	*clefG2	*
*k[]	*	*k[]	*	*k[]	*
*M2/1	*	*M2/1	*	*M2/1	*
*met(C|)	*	*met(C|)	*	*met(C|)	*
!!!OMD: Vere passum
!!section: Vere passum
!	!	!	!	!LO:TX:Z=6:t=Same music as prev. section with an added voice	!
2.F/	Ve-	0f	Ve-	0r	.
4G/	.	.	.	.	.
2A/	.	.	.	.	.
[2B-i\	-re	.	.	.	.
=26	=26	=26	=26	=26	=26
4B-\]	.	1g	-re	0r	.
4G/	.	.	.	.	.
2.c\	pas-	.	.	.	.
.	.	[1a	pas-	.	.
4B-i\	.	.	.	.	.
4A/	.	.	.	.	.
4G/	.	.	.	.	.
=27	=27	=27	=27	=27	=27
2F/	-sum,	2a/]	.	0cc	Ve-
1f	pas-	2f/	.	.	.
.	.	[1f	-sum,	.	.
2e\	.	.	.	.	.
=28	=28	=28	=28	=28	=28
1d	.	1f]	.	1dd	-re
[1c	.	[1cc	pas-	[1ee	pas-
=29	=29	=29	=29	=29	=29
2c\]	.	2cc\]	.	2ee\]	.
4d\	.	4b-i\	.	2cc\	.
4e\	.	4a/	.	.	.
[1f	.	2.a/	.	[1cc	-sum
.	.	4f/	.	.	.
=30	=30	=30	=30	=30	=30
2f\]	.	0f	-sum	1cc]	.
2e\	.	.	.	.	.
1d	.	.	.	1ff	im-
=31	=31	=31	=31	=31	=31
1c	-sum	1r	.	1ee	-mo-
[1B-	im-	[1b-	im-	[1dd	-la
=32	=32	=32	=32	=32	=32
2B-\]	.	1b-]	.	1dd]	.
2A/	.	.	.	.	.
2F/	.	1a	-mo-	1cc	-tum,
2f\	-mo-	.	.	.	.
=33	=33	=33	=33	=33	=33
2e\	-la-	1g	-la-	1r	.
2c\	.	.	.	.	.
1d	.	1f	.	1ff	im-
=34	=34	=34	=34	=34	=34
2c\	.	0g	.	2ee\	-mo-
1B-i	.	.	.	1dd	-la-
4A/	.	.	.	4cc\	.
4G/	.	.	.	4b-i\	.
=35	=35	=35	=35	=35	=35
[0F	-tum	[0a	-tum	1cc	-tum
.	.	.	.	1f	.
=36	=36	=36	=36	=36	=36
1F]	.	0a]	.	1r	.
[1f	in	.	.	1cc	in
=37	=37	=37	=37	=37	=37
2f\]	.	0r	.	1dd	cru-
2e\	cru-	.	.	.	.
1d	-ce	.	.	1ff	-ce
=38	=38	=38	=38	=38	=38
2.c\	pro	0g	in	2.ee\	pro
4B-i\	.	.	.	4dd\	.
2.G/	ho-	.	.	2ee\	.
.	.	.	.	[2dd\	ho-
4A/	.	.	.	.	.
=39	=39	=39	=39	=39	=39
2.B-i\	.	0f	cru-	4dd\]	.
.	.	.	.	4cc\	.
.	.	.	.	4dd\	.
4A/	.	.	.	4cc\	.
2.F/	.	.	.	2dd\	.
.	.	.	.	[2cc\	.
4G/	.	.	.	.	.
=40	=40	=40	=40	=40	=40
2.A/	.	0e	-ce	2cc\]	.
.	.	.	.	4b-i\	.
4B-i\	.	.	.	4a/	.
1c	-mi-	.	.	1g	-mi-
=41	=41	=41	=41	=41	=41
2F/	-ne,	0f	pro-	1f	-ne,
2.f\	in	.	.	.	.
.	.	.	.	1ff	in
4e\	.	.	.	.	.
2d\	.	.	.	.	.
=42	=42	=42	=42	=42	=42
1c	cru-	0g	ho-	1ee	cru-
2.B-i\	-ce	.	.	1dd	-ce
4A/	.	.	.	.	.
=43	=43	=43	=43	=43	=43
2F/	.	1.a	.	1cc	pro
1f	pro-	.	.	.	.
.	.	.	.	[1ff	ho-
2e\	.	2f/	-mi-	.	.
=44	=44	=44	=44	=44	=44
1d	.	1f	-ne,	1ff]	.
1c	ho-	1g	ho-	1ee	.
=45	=45	=45	=45	=45	=45
2.B-i\	.	1b-i	.	1dd	.
4A/	.	.	.	.	.
[1F	.	[1a	.	[1cc	.
=46	=46	=46	=46	=46	=46
2F/]	.	2a/]	.	2cc\]	.
2G/	.	2g/	.	2b-i\	.
2A/	.	[1f	.	1a	.
2B-i\	.	.	.	.	.
=47	=47	=47	=47	=47	=47
2.c\	.	2f/]	.	2.g/	.
.	.	4e/	.	.	.
4d\	.	4d/	.	4f/	.
1c	-mi-	1e	-mi-	1g	-mi-
=48	=48	=48	=48	=48	=48
0F/l	-ne.	0f/l	-ne.	0f/l	-ne.
!!LO:LB:i:g=z
=49||	=49||	=49||	=49||	=49||	=49||
*>C	*	*>C	*	*>C	*
*clefGv2	*	*clefG2	*	*clefG2	*
*k[]	*	*k[]	*	*k[]	*
*M2/1	*	*M2/1	*	*M2/1	*
*met(C|)	*	*met(C|)	*	*met(C|)	*
!!!OMD: Cujus latus
!!section: Cujus latus
0r	.	1.a	Cu-	0r	.
.	.	2b-i\	.	.	.
=50	=50	=50	=50	=50	=50
0r	.	1cc	.	0r	.
.	.	1dd	-jus	.	.
=51	=51	=51	=51	=51	=51
0r	.	1.cc	la-	1.a	Cu-
.	.	4b-i\	.	2b-i\	.
.	.	4a/	.	.	.
=52	=52	=52	=52	=52	=52
0r	.	2a/	.	1cc	.
.	.	2cc\	.	.	.
.	.	1b-i	.	1dd	-jus
=53	=53	=53	=53	=53	=53
0r	.	1.a	.	1.cc	la-
.	.	4g/	.	4b-i\	.
.	.	4f/	.	4a/	.
=54	=54	=54	=54	=54	=54
0r	.	1f	-tus	2a/	.
.	.	.	.	2cc\	.
.	.	1g	per-	1b-i	.
=55	=55	=55	=55	=55	=55
0r	.	2.a/	-fo-	1.a	.
.	.	4b-i\	.	.	.
.	.	2cc\	.	.	.
.	.	[2dd\	-ra-	4g/	.
.	.	.	.	4f/	.
=56	=56	=56	=56	=56	=56
0r	.	4dd\]	.	1f	-tus
.	.	4cc\	.	.	.
.	.	2a/	.	.	.
.	.	2.b-i\	.	1g	per-
.	.	4a/	.	.	.
=57	=57	=57	=57	=57	=57
0r	.	2.f/	.	2.a/	-fo-
.	.	4e/	.	4g/	.
.	.	2c/	.	4a/	.
.	.	.	.	4g/	.
.	.	[2d/	.	[2b-i\	-ra-
=58	=58	=58	=58	=58	=58
0r	.	4d/]	.	4b-\]	.
.	.	4c/	.	4a/	.
.	.	2A/	.	1a	.
.	.	1B-i	.	.	.
.	.	.	.	2g/	.
=59	=59	=59	=59	=59	=59
0r	.	1A	-tum	2.a/	.
.	.	.	.	4b-i\	.
.	.	1r	.	2cc\	.
.	.	.	.	[2f/	.
=60	=60	=60	=60	=60	=60
0r	.	0a	sa-	2f/]	.
.	.	.	.	4e/	.
.	.	.	.	4d/	.
.	.	.	.	2c/	.
.	.	.	.	2d/	.
=61	=61	=61	=61	=61	=61
0r	.	1g	-cro	1e	-tum,
.	.	[1f	flu-	[1a	sa-
=62	=62	=62	=62	=62	=62
0r	.	2f/]	.	1a]	.
.	.	4e/	.	.	.
.	.	4d/	.	.	.
.	.	2e/	-xit	1g	-cro
.	.	2c/	.	.	.
=63	=63	=63	=63	=63	=63
0r	.	2r	.	1.f	flu
.	.	1a	san-	.	.
.	.	4g/	.	4e/	.
.	.	4f/	.	4d/	.
=64	=64	=64	=64	=64	=64
0r	.	2g/	.	2e/	-xit
.	.	2a/	.	2c/	.
.	.	2f/	.	2d/	san-
.	.	[2a/	.	2c/	.
=65	=65	=65	=65	=65	=65
0r	.	2a/]	.	4d/	.
.	.	.	.	4c/	.
.	.	4g/	.	1f	.
.	.	4f/	.	.	.
.	.	1g	.	.	.
.	.	.	.	2e/	.
=66	=66	=66	=66	=66	=66
0r	.	1.f	.	4f/	.
.	.	.	.	4g/	.
.	.	.	.	4a/	.
.	.	.	.	4b-i\	.
.	.	.	.	2cc\	.
.	.	4e/	.	[2dd\	.
.	.	4d/	.	.	.
=67	=67	=67	=67	=67	=67
0r	.	2.f/	.	4dd\]	.
.	.	.	.	4cc\	.
.	.	.	.	2.a/	.
.	.	4e/	.	.	.
.	.	2.c/	.	.	.
.	.	.	.	4b-i\	.
.	.	.	.	[2cc\	.
.	.	4d/	.	.	.
=68	=68	=68	=68	=68	=68
0r	.	2.e/	.	4cc\]	.
.	.	.	.	4b-i\	.
.	.	.	.	2.g/	.
.	.	4f/	.	.	.
.	.	2.g/	.	.	.
.	.	.	.	4a/	.
.	.	.	.	[2b-i\	.
.	.	4f/	.	.	.
=69	=69	=69	=69	=69	=69
0r	.	2.d/	.	4b-\]	.
.	.	.	.	4a/	.
.	.	.	.	2.f/	.
.	.	4c/	.	.	.
.	.	2.d/	.	.	.
.	.	.	.	4g/	.
.	.	.	.	[2a/	.
.	.	4e/	.	.	.
=70	=70	=70	=70	=70	=70
0r	.	4f/	.	2a/]	.
.	.	4c/	.	.	.
.	.	1f	.	2f/	.
.	.	.	.	1g	-gui-
.	.	2e/	-gui-	.	.
=71	=71	=71	=71	=71	=71
0r	.	0f/l	-ne.	0f/l	-ne.
!!LO:LB:i:g=z
=72||	=72||	=72||	=72||	=72||	=72||
*>D	*	*>D	*	*>D	*
*clefGv2	*	*clefG2	*	*clefG2	*
*k[b-]	*	*k[]	*	*k[]	*
*M2/1	*	*M2/1	*	*M2/1	*
*met(C|)	*	*met(C|)	*	*met(C|)	*
!!!OMD: Esto nobis
!!section: Esto nobis
!	!	!	!	!LO:TX:Z=6:t=Same music as prev. section with an added voice	!
1.F	Es-	1.a	Es-	0r	.
2G/	.	2b-i\	.	.	.
=73	=73	=73	=73	=73	=73
1A	.	1cc	.	0r	.
1B-	-to	1dd	-to	.	.
=74	=74	=74	=74	=74	=74
1.F	no-	1.cc	no-	1.a	Es-
2G/	.	4b-i\	.	2b-i\	.
.	.	4a/	.	.	.
=75	=75	=75	=75	=75	=75
2A/	.	2a/	.	1cc	.
2F/	.	2cc\	.	.	.
2.B-\	.	1b-i	.	1dd	-to
4A/	.	.	.	.	.
=76	=76	=76	=76	=76	=76
1.F	.	1.a	.	1.cc	no-
4E/	.	4g/	.	4b-i\	.
4D/	.	4f/	.	4a/	.
=77	=77	=77	=77	=77	=77
2D/	.	1f	-bis	2a/	.
2F/	.	.	.	2cc\	.
1E	-bis,	1g	pre-	1b-i	.
=78	=78	=78	=78	=78	=78
2r	.	2.a/	-gus-	1.a	.
1F	no-	.	.	.	.
.	.	4b-i\	.	.	.
.	.	2cc\	.	.	.
4E/	.	[2dd\	-ta-	4g/	.
4D/	.	.	.	4f/	.
=79	=79	=79	=79	=79	=79
2D/	.	4dd\]	.	1f	bis
.	.	4cc\	.	.	.
2F/	.	2a/	.	.	.
1E	-bis,	2.b-i\	.	1g	pre-
.	.	4a/	.	.	.
=80	=80	=80	=80	=80	=80
2r	.	2.f/	.	2.a/	-gus-
1F	no-	.	.	.	.
.	.	4e/	.	4g/	.
.	.	2c/	.	4a/	.
.	.	.	.	4g/	.
4E/	.	[2d/	.	[2b-i\	-ta-
4D/	.	.	.	.	.
=81	=81	=81	=81	=81	=81
2D/	.	4d/]	.	4b-\]	.
.	.	4c/	.	4a/	.
2F/	.	2A/	.	1a	.
1E	bis	1B-i	.	.	.
.	.	.	.	2g/	.
=82	=82	=82	=82	=82	=82
2r	.	1A	-tum	2.a/	.
1F	pre-	.	.	.	.
.	.	.	.	4b-i\	.
.	.	1r	.	2cc\	.
4E/	-gus-	.	.	[2f/	.
4D/	.	.	.	.	.
=83	=83	=83	=83	=83	=83
2.F/	-ta-	0a	mor-	2f/]	.
.	.	.	.	4e/	.
4G/	.	.	.	4d/	.
2.A/	.	.	.	2c/	.
.	.	.	.	2d/	.
4B-\	.	.	.	.	.
=84	=84	=84	=84	=84	=84
2.c\	.	1g	.	1e	-tum
8d\L	.	.	.	.	.
8e\J	.	.	.	.	.
2f\	-tum	[1f	.	[1a	mor-
[2F/	mor-	.	.	.	.
=85	=85	=85	=85	=85	=85
4F/]	.	2f/]	.	1a]	.
4G/	.	.	.	.	.
4A/	.	4e/	.	.	.
4B-\	.	4d/	.	.	.
1c	-tis	2e/	-tis	1g	.
.	.	2c/	.	.	.
=86	=86	=86	=86	=86	=86
1r	.	2r	.	1.f	.
.	.	1a	in	.	.
1F	in	.	.	.	.
.	.	4g/	ex-	4e/	.
.	.	4f/	.	4d/	.
=87	=87	=87	=87	=87	=87
2.c\	ex-	2g/	-a-	2e/	-tis
.	.	2a/	.	2c/	ex-
4A/	.	.	.	.	.
2B-\	-a-	2f/	.	2d/	-a-
2A/	-mi-	[2a/	.	2c/	.
=88	=88	=88	=88	=88	=88
1F	-ne,	2a/]	.	4d/	.
.	.	.	.	4c/	.
.	.	4g/	.	1f	.
.	.	4f/	.	.	.
2r	.	1g	.	.	.
2C/	ex-	.	.	2e/	.
=89	=89	=89	=89	=89	=89
4D/	-a-	1.f	.	4f/	.
4E/	.	.	.	4g/	.
4F/	.	.	.	4a/	.
4G/	.	.	.	4b-i\	.
2A/	.	.	.	2cc\	.
[2B-\	.	4e/	.	[2dd\	.
.	.	4d/	.	.	.
=90	=90	=90	=90	=90	=90
4B-\]	.	2.f/	.	4dd\]	.
4A/	.	.	.	4cc\	.
2.F/	.	.	.	2.a/	.
.	.	4e/	.	.	.
.	.	2.c/	.	.	.
4G/	.	.	.	4b-i\	.
[2A/	.	.	.	[2cc\	.
.	.	4d/	.	.	.
=91	=91	=91	=91	=91	=91
4A/]	.	2.e/	.	4cc\]	.
4B-\	.	.	.	4b-i\	.
2.c\	.	.	.	2.g/	.
.	.	4f/	.	.	.
.	.	2.g/	.	.	.
4B-\	.	.	.	4a/	.
[2G/	.	.	.	[2b-\	.
.	.	4f/	.	.	.
=92	=92	=92	=92	=92	=92
4G/]	.	2.d/	.	4b-\]	.
4A/	.	.	.	4a/	.
2.B-\	.	.	.	2.f/	.
.	.	4c/	.	.	.
.	.	2.d/	.	.	.
4A/	.	.	.	4g/	.
[2F/	.	.	.	[2a/	.
.	.	4e/	.	.	.
=93	=93	=93	=93	=93	=93
2F/]	.	4f/	.	2a/]	.
.	.	4c/	.	.	.
2D/	.	1f	.	2f/	.
1C	-mi-	.	.	1g	-mi-
.	.	2e/	-mi-	.	.
=94	=94	=94	=94	=94	=94
0Fl	-ne.	0fl	-ne.	0fl	-ne.
!!LO:LB:i:g=z
=95||	=95||	=95||	=95||	=95||	=95||
*>E	*	*>E	*	*>E	*
*clefGv2	*	*clefG2	*	*clefG2	*
*k[b-]	*	*k[]	*	*k[]	*
*M2/1	*	*M2/1	*	*M2/1	*
*met(C|)	*	*met(C|)	*	*met(C|)	*
!!!OMD: O dulcis
!!section: O dulcis
1.f	O	0r	.	0cc	O
2e\	.	.	.	.	.
=96	=96	=96	=96	=96	=96
0d	dul-	0f	O	0dd	.
=97	=97	=97	=97	=97	=97
0c	-cis,	0g	.	1.ee	dul-
.	.	.	.	2cc\	.
=98	=98	=98	=98	=98	=98
1r	.	1.a	dul-	0cc	-cis,
[1f	O	.	.	.	.
.	.	2f/	.	.	.
=99	=99	=99	=99	=99	=99
2f\]	.	0f	-cis,	1.ff	O
2e\	.	.	.	.	.
2d\	.	.	.	.	.
2c\	.	.	.	2ee\	.
=100	=100	=100	=100	=100	=100
2B-\	.	1.b-i	O	2.dd\	.
2A/	.	.	.	.	.
.	.	.	.	4cc\	.
1G	.	.	.	1dd	.
.	.	2a/	.	.	.
=101	=101	=101	=101	=101	=101
1.c	pi-	2.g/	pi-	1.ee	pi-
.	.	4f/	.	.	.
.	.	1g	.	.	.
4B-\	.	.	.	4dd\	.
4A/	.	.	.	4cc\	.
=102	=102	=102	=102	=102	=102
2.A/	.	[0a;l	-e,	2.cc\	.
4B-\	.	.	.	4dd\	.
2c\	.	.	.	2ee\	.
2d\	.	.	.	2ff\	.
=103	=103	=103	=103	=103	=103
2c\	.	0a_	.	2ee\	.
1d	.	.	.	1ff	.
4c\	.	.	.	4ee\	.
4B-\	.	.	.	4dd\	.
=104	=104	=104	=104	=104	=104
0A;l	-e,	0a]	.	0cc;l	-e,
=105|	=105|	=105|	=105|	=105|	=105|
1r	.	0r	.	2.a/	O
.	.	.	.	4g/	.
1f	O	.	.	4a/	.
.	.	.	.	4b-i\	.
.	.	.	.	[2cc\	Je-
=106	=106	=106	=106	=106	=106
2e\	Je-	0r	.	2cc\]	.
2d\	.	.	.	4b-i\	.
.	.	.	.	4a/	.
1e	.	.	.	1g	.
=107	=107	=107	=107	=107	=107
1f	-su	2.a/	O	1.f	-su
.	.	4g/	.	.	.
2r	.	4a/	.	.	.
.	.	4b-i\	.	.	.
2f\	fi-	[2cc\	Je-	4e/	.
.	.	.	.	4d/	.
=108	=108	=108	=108	=108	=108
2.e\	.	2cc\]	.	1c	.
.	.	4b-i\	.	.	.
4d\	.	4a/	.	.	.
1e	.	1g	-su	2r	.
.	.	.	.	2c/	fi
=109	=109	=109	=109	=109	=109
2f\	-li	1.f	fi-	4d/	.
.	.	.	.	4e/	.
2.F/	vir-	.	.	4f/	.
.	.	.	.	4g/	.
.	.	.	.	4a/	.
4E/	.	.	.	4g/	.
4F/	.	4e/	.	[2a/	.
4G/	.	4d/	.	.	.
=110	=110	=110	=110	=110	=110
4A/	.	1c	-li	4a/]	.
4B-\	.	.	.	4g/	.
4c\	.	.	.	4a/	.
4d\	.	.	.	4f/	.
4e\	.	2r	.	1g	-li
4f\	.	.	.	.	.
4g\	.	2c/	vir	.	.
4e\	.	.	.	.	.
=111	=111	=111	=111	=111	=111
1.f	.	4d/	.	4f/	vir-
.	.	4e/	.	4g/	.
.	.	4f/	.	4a/	.
.	.	4g/	.	4b-i\	.
.	.	4a/	.	4cc\	.
.	.	4g/	.	4b-\	.
4e\	-gi-	[2a/	-gi-	4cc\	-gi-
4d\	.	.	.	4dd\	.
=112	=112	=112	=112	=112	=112
1c	-nis	4a/]	.	2ee\	-nis
.	.	4g/	.	.	.
.	.	4a/	.	1ff	.
.	.	4f/	.	.	.
2r	.	1g	-nis	.	.
2c\	Ma-	.	.	2ee\	Ma-
=113	=113	=113	=113	=113	=113
4d\	-ri-	0f	Ma-	4ff\	-ri-
4c\	.	.	.	4ee\	.
4B-\	.	.	.	4dd\	.
4A/	.	.	.	4cc\	.
2B-\	.	.	.	2dd\	.
2A/	.	.	.	4cc\	.
.	.	.	.	4b-i\	.
=114	=114	=114	=114	=114	=114
4f\	.	0f	-ri-	4a/	.
4e\	.	.	.	4g/	.
4d\	.	.	.	1a	.
4c\	.	.	.	.	.
1d	.	.	.	.	.
.	.	.	.	4g/	.
.	.	.	.	4f/	.
=115	=115	=115	=115	=115	=115
0cl	-e.	0g/l	-e.	0e/l	-e.
==	==	==	==	==	==
*-	*-	*-	*-	*-	*-
!!!RDF**kern: l=long note in original notation
!!!RDF**kern: i=editorial accidental
!!!ENC: Will Watson
!!!END: 04/16/2011
!!!EED: Jesse Rodin
!!!EEV: 2012/04/24/
!!attribution-level@Jos: 2 (provisionally attributable [parentheses checkmark])
!!!ONB: Translated from MusicXML and edited on 2011/05/06/ by Craig Sapp
!!muse2ps: C^@{COM}\n@{SCT}^i2I150v90,90,120c135z18l2700t130
